src/assets/desktop/comment.svg

<svg width="342" height="229" viewBox="0 0 342 229" fill="none" xmlns="http://www.w3.org/2000/svg">
<path opacity="0.1" d="M14.82 101.831L87.78 0.371094H127.68L109.44 81.3111C124.64 85.1111 136.8 93.0911 145.92 105.251C155.04 117.411 159.6 131.851 159.6 148.571C159.6 171.371 151.62 190.371 135.66 205.571C120.46 220.771 101.84 228.371 79.8 228.371C57 228.371 38 220.771 22.8 205.571C7.6 190.371 0 171.371 0 148.571C0 140.211 1.14 132.231 3.42 124.631C5.7 116.271 9.5 108.671 14.82 101.831ZM197.22 101.831L270.18 0.371094H310.08L291.84 81.3111C307.04 85.1111 319.2 93.0911 328.32 105.251C337.44 117.411 342 131.851 342 148.571C342 171.371 334.02 190.371 318.06 205.571C302.86 220.771 284.24 228.371 262.2 228.371C239.4 228.371 220.4 220.771 205.2 205.571C190 190.371 182.4 171.371 182.4 148.571C182.4 140.211 183.54 132.231 185.82 124.631C188.1 116.271 191.9 108.671 197.22 101.831Z" fill="#266FFF"/>
</svg>

<svg xmlns="http://www.w3.org/2000/svg" width="342" height="229" fill="none"><path fill="#266FFF" d="M14.82 101.831 87.78.371h39.9l-18.24 80.94q22.8 5.7 36.48 23.94t13.68 43.32q0 34.2-23.94 57-22.8 22.8-55.86 22.8-34.2 0-57-22.8t-22.8-57q0-12.54 3.42-23.94a64.4 64.4 0 0 1 11.4-22.8m182.4 0L270.18.371h39.9l-18.24 80.94q22.8 5.7 36.48 23.94t13.68 43.32q0 34.2-23.94 57-22.8 22.8-55.86 22.8-34.2 0-57-22.8t-22.8-57q0-12.54 3.42-23.94a64.4 64.4 0 0 1 11.4-22.8" opacity=".1"/></svg>
